client/src/assets/images/svgs/logo-app.svg

<svg xmlns="http://www.w3.org/2000/svg" viewBox="0 0 1024 397" fill="currentColor"><path d="M800 198h32v-32h32v-32h-64v32h-32v64h32v-32zm-384-64V70h-32V38h-32V6H128v32H96v32H64v96H32v-32H0v64h32v64h32v64h32v32h32v32h224v-32h32v-32h32v-96h32v-64h-32Zm-64 32v128h-32v32H160v-32h-32V102h32V70h160v32h32v64Z"/><path d="M992 134v32h-32V70h-32V38h-32V6H672v32h-32v32h-32v96h-32v64h32v96h32v32h32v32h224v-32h32v-32h32v-64h32v-64h32v-64ZM672 294V102h32V70h160v32h32v192h-32v32H672ZM192 102v32h-32v64h32v-32h32v-32h32v-32h-64zm384 0H448v64h128v-64z"/></svg>

<svg xmlns="http://www.w3.org/2000/svg" viewBox="0 0 1024 397" fill='currentColor'><polygon class="cls-1" points="800 198 832 198 832 166 864 166 864 134 832 134 800 134 800 166 768 166 768 198 768 230 800 230 800 198"/><path class="cls-1" d="M416,134V70H384V38H352V6H128V38H96V70H64v96H32V134H0v64H32v64H64v64H96v32h32v32H352V358h32V326h32V230h32V166H416Zm-64,32V294H320v32H160V294H128V102h32V70H320v32h32v64Z"/><path class="cls-1" d="M992,134v32H960V70H928V38H896V6H672V38H640V70H608v96H576v64h32v96h32v32h32v32H896V358h32V326h32V262h32V198h32V134ZM672,294V102h32V70H864v32h32V294H864v32H672Z"/><polygon class="cls-1" points="192 102 192 134 160 134 160 166 160 198 192 198 192 166 224 166 224 134 256 134 256 102 224 102 192 102"/><polygon class="cls-1" points="576 102 544 102 512 102 480 102 448 102 448 134 448 166 480 166 512 166 544 166 576 166 576 134 576 102"/></svg>
